X: 2015
T: Odessa Bulgar #3
B: steve tunes
M:4/4
L:1/8
R: Bulgar, Frailach
Q: 1/4=136
K:Gm
V:1 
D ED \
|: "Gm"G2 D2 B2 D2 | G4 zG AB | "Cm"cB AG ^FG FE \
| "D"D4 d2 z D | D^F FF F2 ED | "Gm"DG GG G4 |\
| "D"Ac BA BA G^F |1 "Gm"G4 z D ED :||2 "Gm"G4 z4||
|:  "Bb"Bd dd d2 cB \
| Bd dd d2 cB | d2 e2 d2 c#B | "F"c6 zA | Ac cc c2 BA | \
| Ac cc c2 BA | c2 d2 c2 BA |1 "Bb"B4 z4 :|2  "Bb"B4 zc c/B/A||
|: "Gm"G4 zc BA | B2 B2 BA B/A/G | G4 "G7"ze dc | "Cm"c6 z2 | \
"Bb"B3 d fe dc | "Gm"Bc AB GA Bc |1 "D"dB cA BG A^F | "Gm"G4 z B B/A/G \
:|["D"dB cA zd/^c/ d/e/=e/^f/ | "Gm"Hgz "D7"Hdz "Gm"HG4 |]
% abcbook-tune_id 629ff75685286a7f393e5ab5


% abcbook-boost 0
% abcbook-tablature 
% abcbook-transpose 2
% abcbook-lastupdated 1654652455184
% abcbook-soundfonts 
% abcbook-repeats 3
%%MIDI transpose                 2
% Rhythm Bulgar, frailach
% Titles One title
% Transcriptions Only 1 transcription
% Movement Has some stepwise movement
% Mode minor
% Key G
% Time_signature 4/4
% Text Has notes text
% Has_accompaniment_chords Has chords

